X:1
T:Title
%%score 1 { 2 | 3 }
L:1/8
Q:1/4=93
M:4/4
K:F
V:1 treble nm="Grand Piano, Soprano"
V:2 bass nm="Choir Pad, Wolfsburg, George Stebbins"
V:3 bass 
V:1
 [FA][FG][FA][CF]- [CF]2 C[CF] | [CA][Fc][FB][FA]- [FA] .[EG]3 | %2
w: By~George~Coles~Stebbins,~1885 * * * * * *||
 [CG][CF][EG][FA]- [FA]2 [FA][F=B] | [F=B][FA][FG][Ec]- [Ec]2- [Ec]/ z/ z | %4
w: ||
 [Ec][Ed][Ec][FA]- [FA]2 [FA][FB] | [CA][DG]D[CF]- [CF] .[CE]3 | %6
w: ||
 [CE][CF][EG][FA] [Fc][Fc][FB][FA]- | [FA] [EG]2 F- F2- F/ z/ z | %8
w: ||
 [EG][CE][EG][Ec]- [Ec]2 [Ed][Fc] | [F=B][FA][FB][FA]- [FA] .[EG]3 | %10
w: ||
 [EG][Ec][Fd][Ge]- [Ge]2 E[Ge] | [Fd][Ec][F=B][Ec]- [Ec]2- [Ec]/ z/ z | %12
w: ||
 [Ec][Ed][Ec][FA]- [FA]2 [FA][FB] | [CA][DG]D[CF]- [CF] .[CE]3 | %14
w: ||
 [CE][CF][EG][FA] [Fc][Fc][FB][FA]- | [FA] [EG]2 F- F4- | F2 z2 z4 |] %17
w: |||
V:2
 CB,CA,- A,2 A,A, | CCDC- C .C3 | B,A,B,C- C2[K:treble] DD | DC=B,C- C2- C/ z/ z | %4
 B,B,B,A,- A,2[K:treble] CD | CB,G,[K:bass]A,- A, .G,3 | G,A,[K:treble]CC _EDDC- | %7
 C[K:bass] B,2 A,- A,2- A,/ z/ z | CG,G,G,- G,2[K:treble] CD | DDDC- C .C3 | %10
 CG,G,C- C2 C[K:bass]A, | A,G,G,G,- G,2- G,/ z/ z | B,B,B,A,- A,2[K:treble] CD | %13
 CA,G,[K:bass]A,- A, .G,3 | G,A,[K:treble]CC _EDD[K:bass]C- | C B,2 A,- A,4- | A,2 z2 z4 |] %17
V:3
 F,F,F,F,- F,2 F,F, | F,A,,B,,C,- C, .C,3 | C,C,C,F,- F,2 F,G, | G,G,G,C,- C,2- C,/ z/ z | %4
 C,C,C,F,- F,2 F,F, | F,B,,B,,C,- C, .C,3 | C,C,C,F, F,B,,B,,C,- | C, C,2 F,- F,2- F,/ z/ z | %8
 C,C,C,C,- C,2 C,G, | G,G,G,C,- C, .C,3 | C,C,C,C,- C,2 C,F, | .F,2 z C,- C,2- C,/ z/ z | %12
 C,C,C,F,- F,2 F,F, | F,B,,B,,C,- C, .C,3 | C,C,C,F, A,,B,,B,,C,- | C, C,2 F,- F,4- | F,2 z2 z4 |] %17

